X:190
M:2/4
L:1/8
K:G
(Bd)dc/d/|ec "tr"c2|(Ac)cB/c/|dB "tr"B2|(GB)BA/B/|cAAB/c/|dBcA|G/G/G G2:|

